tools/download-figma-icons/icons/solid/open-hand.svg

<svg width="24" height="24" viewBox="0 0 24 24" fill="none" xmlns="http://www.w3.org/2000/svg">
<path fill-rule="evenodd" clip-rule="evenodd" d="M22.8525 13.755L12.3367 18.8775L12.33 18.8857C12.225 18.9375 12.1125 18.96 12 18.96C11.9317 18.96 11.8717 18.9532 11.8125 18.93C11.7975 18.93 11.7825 18.93 11.7742 18.9232L0.52425 15.4275C0.21 15.3307 0 15.0382 0 14.7082V8.25C0 7.8375 0.33675 7.5 0.75 7.5H6.71175C9.78 7.5 11.0175 9.03 11.475 9.8775H16.05C16.095 9.8775 16.1325 9.8775 16.17 9.89325H16.2C16.2825 9.9 16.3717 9.9075 16.4475 9.93C17.085 10.1032 17.55 10.6875 17.55 11.3775C17.55 12.2032 16.8825 12.8775 16.05 12.8775H9.105C8.6925 12.8775 8.355 13.215 8.355 13.6275C8.355 14.0407 8.6925 14.3775 9.105 14.3775H16.05C17.7075 14.3775 19.05 13.035 19.05 11.3775C19.05 11.2725 19.0425 11.1757 19.035 11.0707L21.0592 10.0807C22.0725 9.585 23.295 10.0132 23.79 11.025C24.285 12.0382 23.865 13.2607 22.8525 13.755Z" fill="black"/>
</svg>

<svg width="24" height="24" viewBox="0 0 24 24" fill="none" xmlns="http://www.w3.org/2000/svg"><path fill-rule="evenodd" clip-rule="evenodd" d="m22.852 13.755-10.515 5.123-.007.008a.74.74 0 0 1-.33.074.498.498 0 0 1-.188-.03c-.014 0-.03 0-.038-.007L.524 15.428a.748.748 0 0 1-.524-.72V8.25c0-.412.337-.75.75-.75h5.962c3.068 0 4.306 1.53 4.763 2.377h4.575c.045 0 .082 0 .12.016h.03c.082.007.172.014.248.037a1.5 1.5 0 0 1 1.102 1.447 1.5 1.5 0 0 1-1.5 1.5H9.105a.752.752 0 0 0-.75.75c0 .414.338.75.75.75h6.945a3 3 0 0 0 3-3c0-.104-.008-.201-.015-.306l2.024-.99a2.045 2.045 0 0 1 1.793 3.674Z" fill="currentColor"/></svg>
